neru-light-classic/32x32/apps/clion.svg

<?xml version="1.0" encoding="UTF-8" standalone="no"?>
<svg
   xmlns:dc="http://purl.org/dc/elements/1.1/"
   xmlns:cc="http://creativecommons.org/ns#"
   xmlns:rdf="http://www.w3.org/1999/02/22-rdf-syntax-ns#"
   xmlns:svg="http://www.w3.org/2000/svg"
   xmlns="http://www.w3.org/2000/svg"
   xmlns:sodipodi="http://sodipodi.sourceforge.net/DTD/sodipodi-0.dtd"
   xmlns:inkscape="http://www.inkscape.org/namespaces/inkscape"
   height="32"
   width="32"
   version="1"
   id="svg28"
   sodipodi:docname="clion.svg"
   inkscape:version="0.92.1 r">
  <metadata
     id="metadata34">
    <rdf:RDF>
      <cc:Work
         rdf:about="">
        <dc:format>image/svg+xml</dc:format>
        <dc:type
           rdf:resource="http://purl.org/dc/dcmitype/StillImage" />
      </cc:Work>
    </rdf:RDF>
  </metadata>
  <defs
     id="defs32" />
  <sodipodi:namedview
     pagecolor="#ffffff"
     bordercolor="#666666"
     borderopacity="1"
     objecttolerance="10"
     gridtolerance="10"
     guidetolerance="10"
     inkscape:pageopacity="0"
     inkscape:pageshadow="2"
     inkscape:window-width="1680"
     inkscape:window-height="963"
     id="namedview30"
     showgrid="false"
     inkscape:zoom="7.375"
     inkscape:cx="16"
     inkscape:cy="16"
     inkscape:window-x="0"
     inkscape:window-y="0"
     inkscape:window-maximized="1"
     inkscape:current-layer="svg28" />
  <path
     style="fill:#cf4f8c;fill-opacity:1;stroke-width:0.69999999"
     d="M 30.000001,6.96875 C 29.945867,6.390208 29.880209,5.811553 29.664064,5.298828 29.382691,4.631374 28.974561,4.0312 28.470704,3.527343 27.966847,3.023486 27.366674,2.615356 26.69922,2.333984 26.187674,2.118336 25.610295,2.054412 25.033204,2 H 16 v 14 h 14.000001 z"
     id="path6-2"
     inkscape:connector-curvature="0" />
  <path
     style="fill:#21d789;fill-opacity:1;stroke-width:0.69999999"
     d="M 6.964844,2 C 6.387754,2.05441 5.810374,2.118337 5.298828,2.333985 4.631374,2.615357 4.031201,3.023487 3.527345,3.527344 3.023488,4.031201 2.615358,4.631375 2.333986,5.298829 2.118338,5.810374 2.054413,6.387754 2.000001,6.964844 V 16 H 16 V 2 Z"
     id="path4-8"
     inkscape:connector-curvature="0" />
  <path
     style="fill:#21d789;fill-opacity:1;stroke-width:0.69999999"
     d="m 25.035157,30 c 0.577089,-0.05441 1.154471,-0.118337 1.666017,-0.333985 0.667454,-0.281372 1.267627,-0.689502 1.771483,-1.193359 0.503857,-0.503857 0.911987,-1.104031 1.193359,-1.771485 0.215647,-0.511545 0.279573,-1.088925 0.333985,-1.666015 V 16 h -14 v 14 z"
     id="path4-8-7"
     inkscape:connector-curvature="0" />
  <path
     style="fill:#2086e7;fill-opacity:1;stroke-width:0.69999999"
     d="m 2,25.03125 c 0.05413,0.578542 0.119792,1.157197 0.335937,1.669922 0.281373,0.667454 0.689503,1.267628 1.19336,1.771485 0.503857,0.503857 1.10403,0.911987 1.771484,1.193359 C 5.812327,29.881664 6.389707,29.945588 6.966798,30 h 9.033203 V 16 H 2 Z"
     id="path6-2-8"
     inkscape:connector-curvature="0" />
  <rect
     style="opacity:1;fill:#3f3f3f;fill-opacity:1;fill-rule:evenodd;stroke:none;stroke-width:0.78646272;stroke-linecap:round;stroke-linejoin:bevel;stroke-miterlimit:4;stroke-dasharray:none;stroke-dashoffset:0;stroke-opacity:1"
     id="rect4497-3-361"
     width="21.423727"
     height="21.423727"
     x="5.2881365"
     y="5.2881365"
     ry="4.2349939" />
  <g
     id="g4542"
     transform="matrix(0.81372632,0,0,0.81372632,-35.044144,29.908062)">
    <path
       inkscape:connector-curvature="0"
       id="path16"
       d="m 56.729056,-10.084746 h 8"
       style="fill:none;stroke:#ffffff;stroke-width:2;stroke-linecap:round;stroke-opacity:1" />
    <path
       inkscape:connector-curvature="0"
       id="path20"
       d="m 60.728712,-17.084748 c 0,0 0,1.000003 -2.000001,1.000003 -2,0 -2,-2.000001 -2,-4.000003 0,-1.999997 0,-3.999999 2,-3.999999 2.000001,0 2.000001,0.999999 2.000001,0.999999"
       style="fill:none;stroke:#ffffff;stroke-width:1.99999988;stroke-linecap:round;stroke-linejoin:bevel;stroke-opacity:1" />
    <path
       inkscape:connector-curvature="0"
       id="path24"
       d="m 64.728712,-24.084748 v 8.000002 h 3.999999 v 0"
       style="opacity:1;fill:none;stroke:#ffffff;stroke-width:1.99999988;stroke-linecap:round;stroke-linejoin:round;stroke-opacity:1" />
  </g>
</svg>

<svg xmlns="http://www.w3.org/2000/svg" height="32" width="32" version="1"><path d="M30 6.969c-.054-.579-.12-1.157-.336-1.67A5.563 5.563 0 0 0 26.7 2.334c-.511-.216-1.089-.28-1.666-.334H16v14h14z" fill="#cf4f8c"/><path d="M6.965 2c-.577.054-1.155.118-1.666.334a5.563 5.563 0 0 0-2.965 2.965c-.216.511-.28 1.089-.334 1.666V16h14V2zM25.035 30c.577-.054 1.155-.118 1.666-.334a5.563 5.563 0 0 0 2.965-2.965c.216-.511.28-1.089.334-1.666V16H16v14z" fill="#21d789"/><path d="M2 25.031c.054.579.12 1.157.336 1.67A5.563 5.563 0 0 0 5.3 29.666c.511.216 1.089.28 1.666.334H16V16H2z" fill="#2086e7"/><rect width="21.424" height="21.424" x="5.288" y="5.288" ry="4.235" fill="#3f3f3f" fill-rule="evenodd"/><g fill="none" stroke="#fff" stroke-width="2" stroke-linecap="round"><path d="M11.118 21.702h6.51" stroke-width="1.62746"/><path d="M14.372 16.006s0 .813-1.627.813-1.627-1.627-1.627-3.254c0-1.628 0-3.255 1.627-3.255s1.627.813 1.627.813" stroke-linejoin="bevel" stroke-width="1.62746"/><path d="M17.627 10.31v6.51h3.255" stroke-linejoin="round" stroke-width="1.62746"/></g></svg>
